X:600
T: John Egan's Polka
S: "Treoir" 34/2
N: John Egan (1903-1989), flute player from Sligo
L: 1/8
M: 2/4
R: polka
K: D
FA A>d | BG B>d | Ad f>d | ed B/c/d/B/ |
FA A>d | BG B>d | Ad f>d | ed d2 :|
Ad f>g | fe ed | ef ga | ba f2 |
Ad f>g | fe ed | ef af | ed d2 :|
